images/class__4.svg

<svg width="101" height="45" viewBox="0 0 101 45" fill="none" xmlns="http://www.w3.org/2000/svg">
<path d="M77.8003 1H88.6003C90.6003 1 92.1003 2.6 92.1003 4.5C92.1003 6.5 90.5003 8 88.6003 8H77.8003C75.8003 8 74.3003 6.4 74.3003 4.5C74.3003 2.5 75.9003 1 77.8003 1Z" stroke="#2D333D" stroke-width="0.3818"/>
<path d="M77.8 1.1001H88.6C90.4 1.1001 91.9 2.6001 91.9 4.4001C91.9 6.2001 90.4 7.7001 88.6 7.7001H77.8C76 7.7001 74.5 6.2001 74.5 4.4001C74.5 2.6001 76 1.1001 77.8 1.1001Z" stroke="#2D333D" stroke-width="0.75"/>
<path d="M71 13.2003C71 11.3003 72.5 9.80029 74.4 9.80029H91.8C93.7 9.80029 95.2 11.3003 95.2 13.2003V34.2003H71V13.2003Z" stroke="#26303B" stroke-width="0.75"/>
<path d="M76 13.2002H90.4C91.2 13.2002 91.9 13.9002 91.9 14.7002V19.5002C91.9 20.3002 91.2 21.0002 90.4 21.0002H76C75.2 21.0002 74.5 20.3002 74.5 19.5002V14.7002C74.5 13.9002 75.1 13.2002 76 13.2002Z" stroke="#26303B" stroke-width="0.75"/>
<path d="M71.5004 34.3999H94.8004C97.6004 34.3999 99.9004 36.6999 99.9004 39.4999C99.9004 42.2999 97.6004 44.5999 94.8004 44.5999H71.5004C68.7004 44.5999 66.4004 42.2999 66.4004 39.4999C66.5004 36.5999 68.8004 34.3999 71.5004 34.3999Z" stroke="#26303B" stroke-width="0.75"/>
<path d="M98.8001 31.1C98.8001 33.1 97.2001 34.7 95.2001 34.7C93.2001 34.7 91.6001 33.1 91.6001 31.1C91.6001 29.1 93.2001 27.5 95.2001 27.5C97.2001 27.5 98.8001 29.1 98.8001 31.1Z" fill="#E0E0E0" stroke="#26303B" stroke-width="0.75"/>
<path d="M95.7001 30.5H94.6001V31.6H95.7001V30.5Z" fill="#26303B"/>
<path d="M98.3004 11.9002L74.9004 31.4002L74.0004 29.1002L72.9004 27.7002L99.1004 6.2002V11.4002L98.3004 11.9002Z" fill="#E0E0E0"/>
<path d="M99.2004 4.80029V6.20029V4.80029ZM99.2004 6.20029V13.1003V11.4003L98.3004 12.0003L74.9004 31.4003L74.0004 29.1003L72.9004 27.7003L99.2004 6.20029Z" stroke="#26303B" stroke-width="0.75"/>
<path d="M74.8001 31.1C74.8001 33.1 73.2001 34.7 71.2001 34.7C69.2001 34.7 67.6001 33.1 67.6001 31.1C67.6001 29.1 69.2001 27.5 71.2001 27.5C73.2001 27.5 74.8001 29.1 74.8001 31.1Z" fill="#E0E0E0" stroke="#26303B" stroke-width="0.75"/>
<path d="M71.8002 30.5H70.7002V31.6H71.8002V30.5Z" fill="#26303B"/>
<path d="M78.6001 7.6001V9.9001" stroke="#26303B" stroke-width="0.75"/>
<path d="M87.2002 7.6001V9.9001" stroke="#26303B" stroke-width="0.75"/>
<path d="M36.3003 17C36.1003 23.1 31.1003 28.1 24.9003 28.1H14.2003C8.00029 28.1 3.00029 23.2 2.80029 17H36.3003Z" stroke="#26303B" stroke-width="0.75"/>
<path d="M2.1 14.6001H36.9C37.5 14.6001 38 15.1001 38 15.7001C38 16.3001 37.5 16.8001 36.9 16.8001H2.1C1.5 16.8001 1 16.3001 1 15.7001C1 15.1001 1.5 14.6001 2.1 14.6001Z" stroke="#26303B" stroke-width="0.75"/>
<path d="M6.60039 5.19987L16.0004 14.8999L6.60039 5.19987ZM16.0004 14.7999H17.1004C17.3004 14.7999 17.5004 14.5999 17.5004 14.3999L17.0004 2.79987C17.0004 2.59987 16.8004 2.39987 16.6004 2.39987C5.40039 1.89987 2.50039 9.69987 2.40039 14.0999C2.40039 14.2999 2.60039 14.4999 2.80039 14.4999L16.0004 14.7999Z" stroke="#26303B" stroke-width="0.75"/>
<path d="M19.4004 15.3999C19.4004 16.4999 18.5004 17.3999 17.4004 17.3999C16.3004 17.3999 15.4004 16.4999 15.4004 15.3999C15.4004 14.2999 16.3004 13.3999 17.4004 13.3999C18.5004 13.3999 19.4004 14.2999 19.4004 15.3999Z" fill="#E0E0E0" stroke="#26303B" stroke-width="0.75"/>
<path d="M34.0001 40.8C34.0001 42.9 32.3001 44.6 30.3001 44.6C28.3001 44.6 26.6001 42.9 26.6001 40.8C26.6001 38.7 28.3001 37 30.3001 37C32.3001 37.1 34.0001 38.7 34.0001 40.8Z" stroke="#26303B" stroke-width="0.75"/>
<path d="M11.3 40.7999C11.3 41.5999 10.7 42.1999 9.9 42.1999C9.1 42.1999 8.5 41.5999 8.5 40.7999C8.5 39.9999 9.1 39.3999 9.9 39.3999C10.7 39.3999 11.3 39.9999 11.3 40.7999Z" stroke="#26303B" stroke-width="0.75"/>
<path d="M13.6002 40.8C13.6002 42.9 11.9002 44.6 9.9002 44.6C7.9002 44.6 6.2002 42.9 6.2002 40.8C6.2002 38.7 7.9002 37 9.9002 37C11.9002 37.1 13.6002 38.7 13.6002 40.8Z" stroke="#26303B" stroke-width="0.75"/>
<path d="M31.6003 40.7999C31.6003 41.5999 31.0003 42.1999 30.2003 42.1999C29.4003 42.1999 28.8003 41.5999 28.8003 40.7999C28.8003 39.9999 29.4003 39.3999 30.2003 39.3999C31.0003 39.3999 31.6003 39.9999 31.6003 40.7999Z" stroke="#26303B" stroke-width="0.75"/>
<path d="M37.8002 6.1L12.8002 38.2L11.9002 37.6L10.7002 37L36.7002 3.7C37.1002 3.2 37.6002 3 38.2002 3H43.6002C44.0002 3 44.5002 3.1 44.7002 3.5C45.0002 4 44.9002 4.5 44.7002 4.8C44.5002 5.2 44.0002 5.3 43.6002 5.3H39.4002C38.7002 5.4 38.2002 5.6 37.8002 6.1Z" fill="#E0E0E0" stroke="#26303B" stroke-width="0.75"/>
<path d="M17.8002 31.8999L26.7002 32.2999L25.3002 28.1999L27.8002 27.8999L30.4002 37.0999H30.0002L28.4002 37.3999L27.5002 34.5999H15.7002L16.8002 33.1999L17.8002 31.8999Z" fill="#E0E0E0" stroke="#26303B" stroke-width="0.75"/>
</svg>

<svg width="101" height="45" fill="none" xmlns="http://www.w3.org/2000/svg"><path d="M77.8 1h10.8c2 0 3.5 1.6 3.5 3.5 0 2-1.6 3.5-3.5 3.5H77.8c-2 0-3.5-1.6-3.5-3.5 0-2 1.6-3.5 3.5-3.5Z" stroke="#2D333D" stroke-width=".382"/><path d="M77.8 1.1h10.8c1.8 0 3.3 1.5 3.3 3.3 0 1.8-1.5 3.3-3.3 3.3H77.8c-1.8 0-3.3-1.5-3.3-3.3 0-1.8 1.5-3.3 3.3-3.3Z" stroke="#2D333D" stroke-width=".75"/><path d="M71 13.2c0-1.9 1.5-3.4 3.4-3.4h17.4c1.9 0 3.4 1.5 3.4 3.4v21H71v-21Z" stroke="#26303B" stroke-width=".75"/><path d="M76 13.2h14.4c.8 0 1.5.7 1.5 1.5v4.8c0 .8-.7 1.5-1.5 1.5H76c-.8 0-1.5-.7-1.5-1.5v-4.8c0-.8.6-1.5 1.5-1.5ZM71.5 34.4h23.3c2.8 0 5.1 2.3 5.1 5.1s-2.3 5.1-5.1 5.1H71.5c-2.8 0-5.1-2.3-5.1-5.1.1-2.9 2.4-5.1 5.1-5.1Z" stroke="#26303B" stroke-width=".75"/><path d="M98.8 31.1c0 2-1.6 3.6-3.6 3.6s-3.6-1.6-3.6-3.6 1.6-3.6 3.6-3.6 3.6 1.6 3.6 3.6Z" fill="#E0E0E0" stroke="#26303B" stroke-width=".75"/><path d="M95.7 30.5h-1.1v1.1h1.1v-1.1Z" fill="#26303B"/><path d="M98.3 11.9 74.9 31.4l-.9-2.3-1.1-1.4L99.1 6.2v5.2l-.8.5Z" fill="#E0E0E0"/><path d="M99.2 4.8v1.4-1.4Zm0 1.4v6.9-1.7l-.9.6-23.4 19.4-.9-2.3-1.1-1.4L99.2 6.2Z" stroke="#26303B" stroke-width=".75"/><path d="M74.8 31.1c0 2-1.6 3.6-3.6 3.6s-3.6-1.6-3.6-3.6 1.6-3.6 3.6-3.6 3.6 1.6 3.6 3.6Z" fill="#E0E0E0" stroke="#26303B" stroke-width=".75"/><path d="M71.8 30.5h-1.1v1.1h1.1v-1.1Z" fill="#26303B"/><path d="M78.6 7.6v2.3M87.2 7.6v2.3M36.3 17c-.2 6.1-5.2 11.1-11.4 11.1H14.2C8 28.1 3 23.2 2.8 17h33.5ZM2.1 14.6h34.8c.6 0 1.1.5 1.1 1.1 0 .6-.5 1.1-1.1 1.1H2.1c-.6 0-1.1-.5-1.1-1.1 0-.6.5-1.1 1.1-1.1Z" stroke="#26303B" stroke-width=".75"/><path d="m6.6 5.2 9.4 9.7-9.4-9.7Zm9.4 9.6h1.1c.2 0 .4-.2.4-.4L17 2.8c0-.2-.2-.4-.4-.4C5.4 1.9 2.5 9.7 2.4 14.1c0 .2.2.4.4.4l13.2.3Z" stroke="#26303B" stroke-width=".75"/><path d="M19.4 15.4c0 1.1-.9 2-2 2s-2-.9-2-2 .9-2 2-2 2 .9 2 2Z" fill="#E0E0E0" stroke="#26303B" stroke-width=".75"/><path d="M34 40.8c0 2.1-1.7 3.8-3.7 3.8s-3.7-1.7-3.7-3.8c0-2.1 1.7-3.8 3.7-3.8 2 .1 3.7 1.7 3.7 3.8ZM11.3 40.8c0 .8-.6 1.4-1.4 1.4-.8 0-1.4-.6-1.4-1.4 0-.8.6-1.4 1.4-1.4.8 0 1.4.6 1.4 1.4Z" stroke="#26303B" stroke-width=".75"/><path d="M13.6 40.8c0 2.1-1.7 3.8-3.7 3.8s-3.7-1.7-3.7-3.8c0-2.1 1.7-3.8 3.7-3.8 2 .1 3.7 1.7 3.7 3.8ZM31.6 40.8c0 .8-.6 1.4-1.4 1.4-.8 0-1.4-.6-1.4-1.4 0-.8.6-1.4 1.4-1.4.8 0 1.4.6 1.4 1.4Z" stroke="#26303B" stroke-width=".75"/><path d="m37.8 6.1-25 32.1-.9-.6-1.2-.6 26-33.3c.4-.5.9-.7 1.5-.7h5.4c.4 0 .9.1 1.1.5.3.5.2 1 0 1.3-.2.4-.7.5-1.1.5h-4.2c-.7.1-1.2.3-1.6.8Z" fill="#E0E0E0" stroke="#26303B" stroke-width=".75"/><path d="m17.8 31.9 8.9.4-1.4-4.1 2.5-.3 2.6 9.2H30l-1.6.3-.9-2.8H15.7l1.1-1.4 1-1.3Z" fill="#E0E0E0" stroke="#26303B" stroke-width=".75"/></svg>
